client/public/img/game/shared/emotes/man_face.svg

<?xml version="1.0" encoding="UTF-8" standalone="no"?>
<!-- Created with Inkscape (http://www.inkscape.org/) -->

<svg
   width="84"
   height="84"
   viewBox="0 0 22.225 22.225"
   version="1.1"
   id="svg1"
   xml:space="preserve"
   xmlns="http://www.w3.org/2000/svg"
   xmlns:svg="http://www.w3.org/2000/svg"><defs
     id="defs1" /><circle
     style="fill:#ffc703;fill-opacity:1;fill-rule:nonzero;stroke:#584d00;stroke-width:1.0197;stroke-linecap:round;stroke-linejoin:round;stroke-miterlimit:4;stroke-dasharray:none;stroke-dashoffset:0;stroke-opacity:1;paint-order:normal"
     id="path10-3"
     cx="11.1125"
     cy="11.112499"
     r="10.602649" /><style
     type="text/css"
     id="style16758">
	.st0{fill:#FFC300;stroke:#695000;stroke-width:13;stroke-miterlimit:10;}
	.st1{fill:#FFC300;stroke:#695000;stroke-width:13;stroke-linecap:round;stroke-miterlimit:10;}
</style><style
     type="text/css"
     id="style16758-4">
	.st0{fill:#FFC300;stroke:#695000;stroke-width:13;stroke-miterlimit:10;}
	.st1{fill:#FFC300;stroke:#695000;stroke-width:13;stroke-linecap:round;stroke-miterlimit:10;}
</style><style
     type="text/css"
     id="style16758-5">
	.st0{fill:#FFC300;stroke:#695000;stroke-width:13;stroke-miterlimit:10;}
	.st1{fill:#FFC300;stroke:#695000;stroke-width:13;stroke-linecap:round;stroke-miterlimit:10;}
</style><style
     type="text/css"
     id="style16758-9">
	.st0{fill:#FFC300;stroke:#695000;stroke-width:13;stroke-miterlimit:10;}
	.st1{fill:#FFC300;stroke:#695000;stroke-width:13;stroke-linecap:round;stroke-miterlimit:10;}
</style><path
     style="fill:none;fill-opacity:1;stroke:#352e00;stroke-width:0.602731;stroke-linecap:round;stroke-linejoin:round;stroke-dasharray:none;stroke-opacity:1"
     d="M 9.6029383,7.8841279 C 8.0741131,7.8847758 6.5452878,7.7027341 5.0164635,7.5040326 3.7565177,7.5726198 3.2346565,8.0619935 2.5458479,8.4796089"
     id="path39596" /><path
     style="fill:none;fill-opacity:1;stroke:#352e00;stroke-width:0.602731;stroke-linecap:round;stroke-linejoin:round;stroke-dasharray:none;stroke-opacity:1"
     d="m 12.671729,7.8841279 c 1.528826,6.479e-4 3.057652,-0.1813938 4.586478,-0.3800953 1.259946,0.068587 1.781808,0.5579609 2.470616,0.9755763"
     id="path39598" /><path
     style="fill:none;fill-opacity:1;stroke:#352e00;stroke-width:0.120546;stroke-linecap:round;stroke-linejoin:round;stroke-dasharray:none;stroke-opacity:1"
     d="M 3.1223246,7.4723588 1.9123567,8.2578875"
     id="path39654" /><path
     style="fill:none;fill-opacity:1;stroke:#352e00;stroke-width:0.120546;stroke-linecap:round;stroke-linejoin:round;stroke-dasharray:none;stroke-opacity:1"
     d="m 19.102674,7.4973798 1.209969,0.7855287"
     id="path39656" /><path
     style="fill:none;fill-opacity:1;stroke:#352e00;stroke-width:0.144655;stroke-linecap:round;stroke-linejoin:round;stroke-dasharray:none;stroke-opacity:1"
     d="M 17.040123,8.7327974 H 13.568592"
     id="path39660" /><path
     style="fill:none;fill-opacity:1;stroke:#352e00;stroke-width:0.265202;stroke-linecap:round;stroke-linejoin:round;stroke-dasharray:none;stroke-opacity:1"
     d="m 17.204831,17.006398 c 0.06457,-1.742822 0.840759,-3.108901 2.052511,-4.24439"
     id="path39662" /><path
     style="fill:none;fill-opacity:1;stroke:#352e00;stroke-width:0.265202;stroke-linecap:round;stroke-linejoin:round;stroke-dasharray:none;stroke-opacity:1"
     d="M 16.343283,14.421755 C 15.185424,16.021027 9.1686431,16.21878 6.3848037,15.916794"
     id="path39664" /><path
     style="fill:none;fill-opacity:1;stroke:#352e00;stroke-width:0.265202;stroke-linecap:round;stroke-linejoin:round;stroke-dasharray:none;stroke-opacity:1"
     d="M 6.5629481,16.454525 C 6.3416832,16.27124 6.2527823,16.053838 6.3568932,15.67062"
     id="path39666" /><path
     style="fill:none;fill-opacity:1;stroke:#352e00;stroke-width:0.144655;stroke-linecap:round;stroke-linejoin:round;stroke-dasharray:none;stroke-opacity:1"
     d="M 8.6278784,8.7050629 H 5.2234903"
     id="path39658" /><path
     style="fill:none;fill-opacity:1;stroke:#352e00;stroke-width:0.144655;stroke-linecap:round;stroke-linejoin:round;stroke-dasharray:none;stroke-opacity:1"
     d="M 3.4073957,10.037997 4.7503966,9.1257701 c 1.2639673,0.068774 2.657825,-0.1871769 3.7882766,0.2153869"
     id="path40394" /><path
     style="fill:none;fill-opacity:1;stroke:#352e00;stroke-width:0.144655;stroke-linecap:round;stroke-linejoin:round;stroke-dasharray:none;stroke-opacity:1"
     d="m 7.7099218,9.1545003 c 0.069402,0.218939 0.2941843,0.5000305 0.4423219,0.7504638"
     id="path40396" /><path
     style="fill:none;fill-opacity:1;stroke:#352e00;stroke-width:0.144655;stroke-linecap:round;stroke-linejoin:round;stroke-dasharray:none;stroke-opacity:1"
     d="M 8.5114125,10.29975 C 7.0692471,10.222261 4.9732079,10.696373 3.9244473,9.9772918"
     id="path40398" /><path
     style="fill:none;fill-opacity:1;stroke:#352e00;stroke-width:0.289311;stroke-linecap:round;stroke-linejoin:round;stroke-dasharray:none;stroke-opacity:1"
     d="M 9.1088153,9.0338343 C 9.3947824,9.2948527 9.4529936,9.5991745 9.2861927,9.9239688"
     id="path40400" /><path
     style="fill:#352f00;fill-opacity:1;stroke:#352e00;stroke-width:0.120546;stroke-linecap:round;stroke-linejoin:round;stroke-dasharray:none;stroke-opacity:1"
     d="m 5.3484645,9.1379913 c -0.2883236,0.4104367 -0.2730159,0.8208734 -1e-7,1.2313097 l 1.7929705,-0.04082 C 7.2624999,9.9579492 7.4573417,9.6652062 7.1227808,9.112422 Z"
     id="path40402" /><ellipse
     style="fill:#ffffff;fill-opacity:1;stroke:#352e00;stroke-width:0.0241092;stroke-linecap:round;stroke-linejoin:round;stroke-dasharray:none;stroke-opacity:1"
     id="path40456"
     cx="6.9918017"
     cy="9.5370922"
     rx="0.19709615"
     ry="0.10102911" /><path
     style="fill:none;fill-opacity:1;stroke:#352e00;stroke-width:0.144655;stroke-linecap:round;stroke-linejoin:round;stroke-dasharray:none;stroke-opacity:1"
     d="M 18.87753,10.037997 17.534528,9.12577 C 16.270561,9.1945394 14.876703,8.9385936 13.74625,9.3411567"
     id="path41808" /><path
     style="fill:none;fill-opacity:1;stroke:#352e00;stroke-width:0.144655;stroke-linecap:round;stroke-linejoin:round;stroke-dasharray:none;stroke-opacity:1"
     d="m 14.575002,9.1545006 c -0.0694,0.2189386 -0.294185,0.5000303 -0.442322,0.7504632"
     id="path41810" /><path
     style="fill:none;fill-opacity:1;stroke:#352e00;stroke-width:0.144655;stroke-linecap:round;stroke-linejoin:round;stroke-dasharray:none;stroke-opacity:1"
     d="m 13.773511,10.299751 c 1.442166,-0.07749 3.538206,0.396622 4.586968,-0.3224595"
     id="path41812" /><path
     style="fill:none;fill-opacity:1;stroke:#352e00;stroke-width:0.289311;stroke-linecap:round;stroke-linejoin:round;stroke-dasharray:none;stroke-opacity:1"
     d="M 13.176108,9.0338347 C 12.89014,9.2948523 12.831929,9.5991745 12.99873,9.923969"
     id="path41814" /><path
     style="fill:#352f00;fill-opacity:1;stroke:#352e00;stroke-width:0.120546;stroke-linecap:round;stroke-linejoin:round;stroke-dasharray:none;stroke-opacity:1"
     d="m 16.93646,9.1379912 c 0.288324,0.4104368 0.273017,0.8208737 0,1.2313108 l -1.763394,-0.03913 C 15.052001,9.9596376 14.827582,9.6652067 15.162143,9.1124225 Z"
     id="path41816" /><ellipse
     style="fill:#ffffff;fill-opacity:1;stroke:#352e00;stroke-width:0.0241092;stroke-linecap:round;stroke-linejoin:round;stroke-dasharray:none;stroke-opacity:1"
     id="ellipse41818"
     cx="-16.739668"
     cy="9.5370922"
     rx="0.19709615"
     ry="0.10102911"
     transform="scale(-1,1)" /></svg>

<svg xmlns="http://www.w3.org/2000/svg" xml:space="preserve" width="84" height="84" viewBox="0 0 22.225 22.225"><circle cx="11.113" cy="11.112" r="10.603" style="fill:#ffc703;fill-opacity:1;fill-rule:nonzero;stroke:#584d00;stroke-width:1.0197;stroke-linecap:round;stroke-linejoin:round;stroke-miterlimit:4;stroke-dasharray:none;stroke-dashoffset:0;stroke-opacity:1;paint-order:normal"/><path d="M9.603 7.884c-1.529 0-3.058-.181-4.587-.38-1.26.069-1.781.558-2.47.976M12.672 7.884c1.529 0 3.057-.181 4.586-.38 1.26.069 1.782.558 2.47.976" style="fill:none;fill-opacity:1;stroke:#352e00;stroke-width:.602731;stroke-linecap:round;stroke-linejoin:round;stroke-dasharray:none;stroke-opacity:1"/><path d="m3.122 7.472-1.21.786M19.103 7.497l1.21.786" style="fill:none;fill-opacity:1;stroke:#352e00;stroke-width:.120546;stroke-linecap:round;stroke-linejoin:round;stroke-dasharray:none;stroke-opacity:1"/><path d="M17.04 8.733H13.57" style="fill:none;fill-opacity:1;stroke:#352e00;stroke-width:.144655;stroke-linecap:round;stroke-linejoin:round;stroke-dasharray:none;stroke-opacity:1"/><path d="M17.205 17.006c.064-1.742.84-3.109 2.052-4.244M16.343 14.422c-1.158 1.599-7.174 1.797-9.958 1.495" style="fill:none;fill-opacity:1;stroke:#352e00;stroke-width:.265202;stroke-linecap:round;stroke-linejoin:round;stroke-dasharray:none;stroke-opacity:1"/><path d="M6.563 16.455c-.221-.184-.31-.401-.206-.784" style="fill:none;fill-opacity:1;stroke:#352e00;stroke-width:.265202;stroke-linecap:round;stroke-linejoin:round;stroke-dasharray:none;stroke-opacity:1"/><path d="M8.628 8.705H5.223M3.407 10.038l1.343-.912c1.264.069 2.658-.187 3.789.215" style="fill:none;fill-opacity:1;stroke:#352e00;stroke-width:.144655;stroke-linecap:round;stroke-linejoin:round;stroke-dasharray:none;stroke-opacity:1"/><path d="M7.71 9.155c.07.218.294.5.442.75M8.511 10.3c-1.442-.078-3.538.396-4.587-.323" style="fill:none;fill-opacity:1;stroke:#352e00;stroke-width:.144655;stroke-linecap:round;stroke-linejoin:round;stroke-dasharray:none;stroke-opacity:1"/><path d="M9.109 9.034c.286.26.344.565.177.89" style="fill:none;fill-opacity:1;stroke:#352e00;stroke-width:.289311;stroke-linecap:round;stroke-linejoin:round;stroke-dasharray:none;stroke-opacity:1"/><path d="M5.348 9.138c-.288.41-.273.82 0 1.231l1.793-.04c.121-.371.316-.664-.018-1.217Z" style="fill:#352f00;fill-opacity:1;stroke:#352e00;stroke-width:.120546;stroke-linecap:round;stroke-linejoin:round;stroke-dasharray:none;stroke-opacity:1"/><ellipse cx="6.992" cy="9.537" rx=".197" ry=".101" style="fill:#fff;fill-opacity:1;stroke:#352e00;stroke-width:.0241092;stroke-linecap:round;stroke-linejoin:round;stroke-dasharray:none;stroke-opacity:1"/><path d="m18.878 10.038-1.343-.912c-1.264.069-2.658-.187-3.789.215" style="fill:none;fill-opacity:1;stroke:#352e00;stroke-width:.144655;stroke-linecap:round;stroke-linejoin:round;stroke-dasharray:none;stroke-opacity:1"/><path d="M14.575 9.155c-.07.218-.294.5-.442.75M13.774 10.3c1.442-.078 3.538.396 4.586-.323" style="fill:none;fill-opacity:1;stroke:#352e00;stroke-width:.144655;stroke-linecap:round;stroke-linejoin:round;stroke-dasharray:none;stroke-opacity:1"/><path d="M13.176 9.034c-.286.26-.344.565-.177.89" style="fill:none;fill-opacity:1;stroke:#352e00;stroke-width:.289311;stroke-linecap:round;stroke-linejoin:round;stroke-dasharray:none;stroke-opacity:1"/><path d="M16.936 9.138c.289.41.273.82 0 1.231l-1.763-.039c-.121-.37-.345-.665-.01-1.218Z" style="fill:#352f00;fill-opacity:1;stroke:#352e00;stroke-width:.120546;stroke-linecap:round;stroke-linejoin:round;stroke-dasharray:none;stroke-opacity:1"/><ellipse cx="-16.74" cy="9.537" rx=".197" ry=".101" style="fill:#fff;fill-opacity:1;stroke:#352e00;stroke-width:.0241092;stroke-linecap:round;stroke-linejoin:round;stroke-dasharray:none;stroke-opacity:1" transform="scale(-1 1)"/></svg>
